neru-light-classic/32x32/apps/avidemux.svg

<?xml version="1.0" encoding="UTF-8" standalone="no"?>
<svg
   xmlns:dc="http://purl.org/dc/elements/1.1/"
   xmlns:cc="http://creativecommons.org/ns#"
   xmlns:rdf="http://www.w3.org/1999/02/22-rdf-syntax-ns#"
   xmlns:svg="http://www.w3.org/2000/svg"
   xmlns="http://www.w3.org/2000/svg"
   xmlns:sodipodi="http://sodipodi.sourceforge.net/DTD/sodipodi-0.dtd"
   xmlns:inkscape="http://www.inkscape.org/namespaces/inkscape"
   height="32"
   width="32"
   version="1"
   id="svg30"
   sodipodi:docname="avidemux.svg"
   inkscape:version="0.92.2 2405546, 2018-03-11">
  <metadata
     id="metadata36">
    <rdf:RDF>
      <cc:Work
         rdf:about="">
        <dc:format>image/svg+xml</dc:format>
        <dc:type
           rdf:resource="http://purl.org/dc/dcmitype/StillImage" />
      </cc:Work>
    </rdf:RDF>
  </metadata>
  <defs
     id="defs34" />
  <sodipodi:namedview
     pagecolor="#ffffff"
     bordercolor="#666666"
     borderopacity="1"
     objecttolerance="10"
     gridtolerance="10"
     guidetolerance="10"
     inkscape:pageopacity="0"
     inkscape:pageshadow="2"
     inkscape:window-width="1680"
     inkscape:window-height="972"
     id="namedview32"
     showgrid="false"
     inkscape:zoom="10.429825"
     inkscape:cx="34.400651"
     inkscape:cy="26.726098"
     inkscape:window-x="0"
     inkscape:window-y="0"
     inkscape:window-maximized="1"
     inkscape:current-layer="svg30" />
  <rect
     style="opacity:1;fill:#666666;fill-opacity:1;fill-rule:evenodd;stroke:none;stroke-width:1.03534329;stroke-linecap:round;stroke-linejoin:bevel;stroke-miterlimit:4;stroke-dasharray:none;stroke-dashoffset:0;stroke-opacity:1"
     id="rect4497-3"
     width="28.203388"
     height="28.203388"
     x="1.8983059"
     y="1.8983059"
     ry="5.575182" />
  <path
     inkscape:connector-curvature="0"
     style="opacity:1;fill:#737374;fill-opacity:1;fill-rule:evenodd;stroke:none;stroke-width:1.03534329;stroke-linecap:round;stroke-linejoin:bevel;stroke-miterlimit:4;stroke-dasharray:none;stroke-dashoffset:0;stroke-opacity:1"
     d="M 1.898437,8.0253906 V 24.527343 c 0,3.088651 2.485568,5.574219 5.574219,5.574219 H 24.52539 c 3.088651,0 5.576172,-2.485568 5.576172,-5.574219 V 8.0253906 Z"
     id="path4584" />
  <path
     style="opacity:1;fill:#999999;fill-opacity:1;fill-rule:evenodd;stroke:none;stroke-width:1.03534329;stroke-linecap:round;stroke-linejoin:bevel;stroke-miterlimit:4;stroke-dasharray:none;stroke-dashoffset:0;stroke-opacity:1"
     d="M 8.53125 1.8984375 L 11.535156 4.9023438 L 8.4121094 8.0253906 L 12.578125 8.0253906 L 15.701172 4.9023438 L 12.697266 1.8984375 L 8.53125 1.8984375 z M 15.820312 1.8984375 L 18.824219 4.9023438 L 15.701172 8.0253906 L 19.865234 8.0253906 L 22.988281 4.9023438 L 19.984375 1.8984375 L 15.820312 1.8984375 z M 23.107422 1.8984375 L 26.111328 4.9023438 L 22.988281 8.0253906 L 27.152344 8.0253906 L 29.699219 5.4785156 C 29.619359 5.2707158 29.499597 5.0971636 29.396484 4.9023438 C 28.462338 3.1373947 26.668417 1.8984375 24.525391 1.8984375 L 23.107422 1.8984375 z M 5.0039062 2.5351562 C 3.1787823 3.4493327 1.8984375 5.2868488 1.8984375 7.4746094 L 1.8984375 8.0253906 L 7.3710938 8.0253906 L 7.3710938 4.9023438 L 5.0039062 2.5351562 z "
     id="path4587" />
  <path
     style="fill:#bababa;enable-background:new"
     d="m 10.171152,13.492851 c -0.5539998,0 -0.9999998,0.446 -0.9999998,1 v 8 c 0,0.554 0.446,1 0.9999998,1 h 9 c 0.554,0 1,-0.446 1,-1 v -8 c 0,-0.554 -0.446,-1 -1,-1 z m 10,5 4,3 v -6 z"
     id="path28"
     inkscape:connector-curvature="0" />
</svg>

<svg xmlns="http://www.w3.org/2000/svg" height="32" width="32" version="1"><rect width="28.203" height="28.203" x="1.898" y="1.898" ry="5.575" fill="#666" fill-rule="evenodd"/><path d="M1.898 8.025v16.502a5.561 5.561 0 0 0 5.575 5.575h17.052a5.563 5.563 0 0 0 5.577-5.575V8.025z" fill="#737374" fill-rule="evenodd"/><path d="M8.531 1.898l3.004 3.004-3.123 3.123h4.166l3.123-3.123-3.004-3.004H8.531zm7.29 0l3.003 3.004-3.123 3.123h4.164l3.123-3.123-3.004-3.004H15.82zm7.286 0l3.004 3.004-3.123 3.123h4.164L29.7 5.48c-.08-.208-.2-.382-.303-.577-.934-1.765-2.728-3.004-4.87-3.004h-1.419zm-18.103.637c-1.825.914-3.106 2.752-3.106 4.94v.55h5.473V4.902L5.004 2.535z" fill="#999" fill-rule="evenodd"/><path d="M10.171 13.493c-.554 0-1 .446-1 1v8c0 .554.446 1 1 1h9c.554 0 1-.446 1-1v-8c0-.554-.446-1-1-1zm10 5l4 3v-6z" fill="#bababa"/></svg>
